X:232
T: O Soldat (3-35), S. 110
N: P1007
O: Lothringen
S: PINCK, Louis: Verklingende Weisen, Bd3, Metz 1933]
R: Soldatenlied]
M: 2/4
L: 1/8
K: D
 | D2F2 | A3B | A4 | GAB2 | A2AG | F4 | z2
FE | D2F2 | A3B | A4 | GAB2 | A2AG | F4 | z2
FE | D4 | G2B2 | d2d2 | ccB2 | A3F | A4
d4 | c2B2 | E4 | B4 | A2AG | F4

